X:1
T: Garcon Volange
C:
R:Jig
Q:180
K:G
M:6/8
L:1/16
|:d2B2|G2d2B2 G2d2B2|A2d2c2 A2d2c2|B2d2g2 g2f2g2|b2a2a2 a2d2B2|
G2d2B2 G2d2B2|A2d2c2 A2d2c2|B2d2g2 f2e2f2|g2g2g2 g4z2:|
b6 g6|a2a2a2 a4z2|c'6 f6|g2g2g2 g4z2|
b6 g6|a2a2a2 a4z2|c'6 f6|g2g2g2 g4z2|
|:d6 c2B2c2|d6 c2B2c2|d4d2 g4d2|b2a2g2 f2e2d2|
c6 A2^G2A2|c6 A2^G2A2|c2e2d2 c2B2A2|G2G2G2 G2:|
